X: 2
T: the Lisnagan Jig   [D]
C: Brendan Ring
D: Green Linnet SIF 3112, Nomos - "I Won't Be Afraid Anymore."
S: https://thesession.org/tunes/3842
Z: 2020 John Chambers <jc:trillian.mit.edu>
M: 6/8
K: D
|:\
dBA ddd | efa f3  | efa fed | edB dBA |\
dBA ddd | efa f3  | efa fed | edB [1 dBA :|2 def ||
||\
a3  f3  | efa fff | efa fed | edB def |\
a3  f3  | efa fff | efa fed | edB def ||
||\
a3  f3  | efa fff | efa fed | edB def |\
dBA ddd | efa f3  | efa fed | edB dBA ||


